svg/300/sharp/cheer.svg

<svg xmlns="http://www.w3.org/2000/svg" width="48" height="48" viewBox="0 -960 960 960"><path d="m320.308-767.616-31.692-94.076 31.076-10.692 31.692 94.076-31.076 10.692Zm143.154-45.846v-93.076h33.076v93.076h-33.076Zm176.23 45.846-31.076-10.692 31.692-94.076 31.076 10.692-31.692 94.076ZM866.769-49.001l5.692-45.383-246.231-37.77-45.231-148.153 37.538-70.924 37.616 118.308 43.153-13.769-104.462-327.847 27.385-15.462 179.77 342.309h93.768v-45.384h-66.615L640.459-651.384l-100.537 55.153 59.154 183.232-67.307 129.615 59.615 191.153 275.385 43.23ZM656.153-232.923l-57.077-180.076 57.077 180.076Zm43.153-13.769ZM93.231-49.001 87.54-94.384l246.616-37.77 44.846-148.153-37.538-70.924-37.616 118.308-43.153-13.769 104.462-327.847-27.385-15.462-179.77 342.309h-93.77v-45.384h66.616l188.693-358.308 100.537 55.153-59.154 183.232 67.307 129.615-60 191.153-275 43.23Zm210.616-183.922 57.077-180.076-57.077 180.076Zm-43.153-13.769Z"/></svg>

<svg xmlns="http://www.w3.org/2000/svg" width="48" height="48" viewBox="0 -960 960 960"><path d="m320.31-767.62-31.69-94.07 31.07-10.69 31.69 94.07-31.07 10.69Zm143.15-45.84v-93.08h33.08v93.08h-33.08Zm176.23 45.84-31.07-10.69 31.69-94.07 31.07 10.69-31.69 94.07ZM866.77-49l5.69-45.38-246.23-37.77L581-280.31l37.54-70.92 37.61 118.31 43.16-13.77-104.47-327.85L622.23-590 802-247.69h93.77v-45.39h-66.62l-188.69-358.3-100.54 55.15L599.08-413l-67.31 129.62 59.61 191.15L866.77-49ZM656.15-232.92 599.08-413l57.07 180.08Zm43.16-13.77ZM93.23-49l-5.69-45.38 246.62-37.77L379-280.31l-37.54-70.92-37.61 118.31-43.16-13.77 104.47-327.85L337.77-590 158-247.69H64.23v-45.39h66.62l188.69-358.3 100.54 55.15L360.92-413l67.31 129.62-60 191.15L93.23-49Zm210.62-183.92L360.92-413l-57.07 180.08Zm-43.16-13.77Z"/></svg>
